Adwaita++/actions/symbolic/document-revert-symbolic.svg

<svg height="16" width="16" xmlns="http://www.w3.org/2000/svg">
  <g fill="#474747">
    <path d="m3 1a1 1 0 0 0 -1 1v13a1 1 0 0 0 1 1h10a1 1 0 0 0 1-1v-4s.014-.709-.355-1.447c-.37-.739-1.312-1.553-2.645-1.553h-3a1 1 0 1 0 0 2h3c.667 0 .725.186.855.447.131.262.145.553.145.553v3h-8v-11h5.586l2.414 2.414v.586a1 1 0 1 0 2 0v-1a1 1 0 0 0 -.293-.707l-3-3a1 1 0 0 0 -.707-.293z" fill-rule="evenodd"/>
    <path d="m8.293 6.293-2.707 2.707 2.707 2.707 1.414-1.414-1.293-1.293 1.293-1.293z"/>
    <path d="m9 11h1v1h-1zm0-5h1v1h-1z"/>
    <path d="m9 6c.554 0 1 .446 1 1s-.446 1-1 1-1-.446-1-1 .446-1 1-1zm0 4c.554 0 1 .446 1 1s-.446 1-1 1-1-.446-1-1 .446-1 1-1z"/>
  </g>
</svg>

<svg xmlns="http://www.w3.org/2000/svg" width="16" height="16">
    <g color="#000" fill="#474747">
        <path d="M3 1a1 1 0 0 0-1 1v13a1 1 0 0 0 1 1h10a1 1 0 0 0 1-1v-4s.014-.709-.355-1.447C13.275 8.814 12.333 8 11 8H8a1 1 0 1 0 0 2h3c.667 0 .725.186.855.447.131.262.145.553.145.553v3H4V3h5.586L12 5.414V6a1 1 0 1 0 2 0V5a1 1 0 0 0-.293-.707l-3-3A1 1 0 0 0 10 1z" style="line-height:normal;font-variant-ligatures:normal;font-variant-position:normal;font-variant-caps:normal;font-variant-numeric:normal;font-variant-alternates:normal;font-feature-settings:normal;text-indent:0;text-align:start;text-decoration-line:none;text-decoration-style:solid;text-decoration-color:#000;text-transform:none;text-orientation:mixed;shape-padding:0;isolation:auto;mix-blend-mode:normal" font-weight="400" font-family="sans-serif" white-space="normal" overflow="visible" fill-rule="evenodd"/>
        <path d="M8.293 6.293L5.586 9l2.707 2.707 1.414-1.414L8.414 9l1.293-1.293z" style="line-height:normal;font-variant-ligatures:normal;font-variant-position:normal;font-variant-caps:normal;font-variant-numeric:normal;font-variant-alternates:normal;font-feature-settings:normal;text-indent:0;text-align:start;text-decoration-line:none;text-decoration-style:solid;text-decoration-color:#000;text-transform:none;text-orientation:mixed;shape-padding:0;isolation:auto;mix-blend-mode:normal;marker:none" font-weight="400" font-family="sans-serif" white-space="normal" overflow="visible"/>
        <path d="M9 11h1v1H9zM9 6h1v1H9z" style="marker:none" overflow="visible"/>
        <path d="M9 6c.554 0 1 .446 1 1s-.446 1-1 1-1-.446-1-1 .446-1 1-1zM9 10c.554 0 1 .446 1 1s-.446 1-1 1-1-.446-1-1 .446-1 1-1z" style="marker:none" overflow="visible"/>
    </g>
</svg>
